X:1
T:Vergi\ss mein nicht
T:Vergi\ss mein nicht
T:BWV 505
T:Johann Sebastian Bach
C:Johann Sebastian Bach
%%score 1 2
L:1/8
M:3/4
K:C
V:1 treble 
V:2 bass 
V:1
 c2 B2 A^G | A6 | f2 d3 g | e3 d cB | Ad B3 c | c6 | e2 gf ed | ^c2 d2 e2 | fefe d2 | f2 B=c dB | %10
w: Ver- giss mein *|nicht,|ver- giss mein|nicht, mein al- *|ler- * lieb- ster|Gott!|Ach h"o- * re *|doch * mein|Fle- * * * hen,|ach lass * mir *|
 ^G2 e2 d2 | cBcB A2 | B2 ^D2 E2 | ^FG/A/ F3 E | E6 | B2 cA d2 | B3 A G2 | =f2 ed cB | e2 A2 d2- | %19
w: Gnad * ge-|sche- * * * hen,|wenn ich hab|Angst * * und *|Not!|Du mei- * ne|Zu- ver- sicht|ver- giss * mein *|nicht, ver- giss|
 de c2 BA | !fermata!A6 |] %21
w: * * mein * *|nicht.|
V:2
 A,,2 D,2 E,2 | F,3 E, D,^C, | D,2 B,,2 G,,2 | =C,2 D,2 E,2 | F,2 G,2 G,,2 | C,2 E,2 G,2 | %6
 C,2 _B,A,G,B, | A,G,F,E,D,^C, | D,2 A,,2 D,,2 | D,E, F,2 =B,,2 | E,D,=C,B,,A,,^G,, | %11
 A,,2 E,2 A,2- | A,=G,A,^F,G,E, | C,2 A,,2 B,,2 | E,,2 G,,2 B,,2 | E,4 ^F,2 | G,2 G,,A,,B,,C, | %17
 D,2 G,2 G,,2 | C,D,C,B,,A,,^G,, | A,,2 E,2 E,,2 | !fermata!A,,6 |] %21

